setcps 1.2

d1 $sound "bleep:3 [cc circus]*2 [sd control drum]*2"
        # crush 2
        # up 2
        # gain 1.5
        # cut 1
        # pan "1 0"

d2 $sound "bd!3 [sd bd]"
        # up 4
        # gain 1.5
        # pan "0 1"
        # shape "0 0.78"

d2 $silence

hush